www/assets/icons/30fps.svg

<svg xmlns="http://www.w3.org/2000/svg" width="24" height="24" viewBox="0 0 24 24" fill='currentColor'><path d="M2 5v3h6v2.5H3v3h5V16H2v3h6c1.66 0 3-1.34 3-3v-1.9A2.1 2.1 0 0 0 8.9 12 2.1 2.1 0 0 0 11 9.9V8c0-1.66-1.34-3-3-3zm17 3v8h-4V8zm0-3h-4c-1.66 0-3 1.34-3 3v8c0 1.66 1.34 3 3 3h4c1.66 0 3-1.34 3-3V8c0-1.66-1.34-3-3-3"/></svg>

<svg width="24" height="24" viewBox="0 0 24 24" xmlns="http://www.w3.org/2000/svg" fill='currentColor'><path d="M2 5V8H8V10.5H3V13.5H8V16H2V19H8C9.66 19 11 17.66 11 16V14.1C11 12.94 10.06 12 8.9 12C10.06 12 11 11.06 11 9.9V8C11 6.34 9.66 5 8 5H2ZM19 8V16H15V8H19ZM19 5H15C13.34 5 12 6.34 12 8V16C12 17.66 13.34 19 15 19H19C20.66 19 22 17.66 22 16V8C22 6.34 20.66 5 19 5Z"/></svg>
